64x64/apps/lsp-plugins.svg

<svg xmlns="http://www.w3.org/2000/svg" width="64" height="64" version="1.1">
 <rect style="opacity:0.2" width="58" height="42" x="3" y="12" rx="3.955" ry="3.938"/>
 <rect style="fill:#00cfff" width="58" height="42" x="3" y="11" rx="3.955" ry="3.938"/>
 <path style="opacity:0.2" d="M 8,22 V 44 H 22 V 40 H 12 V 22 Z m 24.542969,0 c -2.40961,-0.04542 -5.089268,0.752505 -6.429688,2.863281 -1.001982,1.663912 -1.100913,3.817413 -0.390625,5.605469 0.79767,1.908294 2.657186,3.052528 4.46875,3.90625 1.34448,0.712646 2.872333,1.223729 3.921875,2.363281 0.966704,1.126338 0.249826,3.088103 -1.222656,3.355469 -2.255474,0.498144 -4.532288,-0.232328 -6.597656,-1.089844 -0.539598,-0.14414 -1.485859,-0.933757 -1.257813,0.04687 v 3.65625 c 2.783388,1.312982 6.033321,1.60907 9.039063,0.964844 2.289678,-0.479156 4.37558,-2.22457 4.789062,-4.558594 0.375048,-1.916162 0.006,-4.097132 -1.5,-5.472656 -1.983522,-1.905998 -4.786628,-2.566701 -6.972656,-4.175781 -1.124012,-0.935414 -0.787338,-2.972936 0.621094,-3.457032 1.652288,-0.546559 3.438749,-0.05342 5.023437,0.496094 0.594226,0.0891 1.495938,0.962938 1.617188,0 L 38.90625,23.496094 C 36.894834,22.637456 34.759965,21.961161 32.542969,22 Z M 42,22 V 43.949219 L 46,44 v -7.882812 l 2.132812,-0.04688 c 1.963758,-0.139319 3.52035,-0.343219 4.65625,-1.019531 1.154838,-0.676308 1.980435,-1.565183 2.472657,-2.671875 C 55.753945,31.272224 56,30.146607 56,28.855469 56,26.724067 55.395222,25.05291 54.183594,23.84375 52.990894,22.614096 51.089138,22 48.476562,22 Z m 4,3.992188 h 2.253906 c 2.498694,0 3.746094,0.979752 3.746094,2.9375 0,1.072994 -0.396246,1.854313 -1.1875,2.34375 -0.770434,0.470614 -1.819706,0.703124 -3.152344,0.703124 H 46 Z"/>
 <path style="fill:#f4f4f7" d="M 8 21 L 8 43 L 22 43 L 22 39 L 12 39 L 12 21 L 8 21 z M 32.542969 21 C 30.133359 20.95458 27.453701 21.752505 26.113281 23.863281 C 25.111299 25.527193 25.012368 27.680694 25.722656 29.46875 C 26.520326 31.377044 28.379842 32.521278 30.191406 33.375 C 31.535886 34.087646 33.063739 34.598729 34.113281 35.738281 C 35.079985 36.864619 34.363107 38.826384 32.890625 39.09375 C 30.635151 39.591894 28.358337 38.861422 26.292969 38.003906 C 25.753371 37.859766 24.80711 37.070149 25.035156 38.050781 L 25.035156 41.707031 C 27.818544 43.020013 31.068477 43.316101 34.074219 42.671875 C 36.363897 42.192719 38.449799 40.447305 38.863281 38.113281 C 39.238329 36.197119 38.869281 34.016149 37.363281 32.640625 C 35.379759 30.734627 32.576653 30.073924 30.390625 28.464844 C 29.266613 27.52943 29.603287 25.491908 31.011719 25.007812 C 32.664007 24.461253 34.450468 24.954392 36.035156 25.503906 C 36.629382 25.593006 37.531094 26.466844 37.652344 25.503906 L 38.90625 22.496094 C 36.894834 21.637456 34.759965 20.961161 32.542969 21 z M 42 21 L 42 42.949219 L 46 43 L 46 35.117188 L 48.132812 35.070312 C 50.09657 34.930993 51.653162 34.727093 52.789062 34.050781 C 53.9439 33.374473 54.769497 32.485598 55.261719 31.378906 C 55.753945 30.272224 56 29.146607 56 27.855469 C 56 25.724067 55.395222 24.05291 54.183594 22.84375 C 52.990894 21.614096 51.089138 21 48.476562 21 L 42 21 z M 46 24.992188 L 48.253906 24.992188 C 50.7526 24.992188 52 25.97194 52 27.929688 C 52 29.002682 51.603754 29.784001 50.8125 30.273438 C 50.042066 30.744052 48.992794 30.976562 47.660156 30.976562 L 46 30.976562 L 46 24.992188 z"/>
 <path style="opacity:0.2;fill:#f4f4f7" d="M 6.953125 11 C 4.762307 11 3 12.756125 3 14.9375 L 3 15.9375 C 3 13.756125 4.762307 12 6.953125 12 L 57.046875 12 C 59.237693 12 61 13.756125 61 15.9375 L 61 14.9375 C 61 12.756125 59.237693 11 57.046875 11 L 6.953125 11 z"/>
</svg>

<svg xmlns="http://www.w3.org/2000/svg" width="64" height="64"><rect style="opacity:.2" width="58" height="42" x="3" y="12" rx="3.955" ry="3.938"/><rect style="fill:#00cfff" width="58" height="42" x="3" y="11" rx="3.955" ry="3.938"/><path style="opacity:.2" d="M8 22v22h14v-4H12V22zm24.543 0c-2.41-.045-5.09.753-6.43 2.863-1.002 1.664-1.1 3.818-.39 5.606.797 1.908 2.657 3.052 4.468 3.906 1.345.713 2.873 1.224 3.922 2.363.967 1.127.25 3.088-1.222 3.356-2.256.498-4.533-.233-6.598-1.09-.54-.144-1.486-.934-1.258.047v3.656c2.784 1.313 6.033 1.61 9.04.965 2.289-.48 4.375-2.225 4.788-4.559.375-1.916.006-4.097-1.5-5.472-1.983-1.906-4.786-2.567-6.972-4.176-1.124-.936-.788-2.973.62-3.457 1.653-.547 3.44-.054 5.024.496.594.089 1.496.963 1.617 0l1.254-3.008c-2.011-.859-4.146-1.535-6.363-1.496zM42 22v21.95l4 .05v-7.883l2.133-.047c1.964-.139 3.52-.343 4.656-1.02 1.155-.676 1.98-1.564 2.473-2.671A8.41 8.41 0 0 0 56 28.855c0-2.13-.605-3.802-1.816-5.011C52.99 22.614 51.089 22 48.477 22zm4 3.992h2.254c2.499 0 3.746.98 3.746 2.938 0 1.073-.396 1.854-1.188 2.343-.77.471-1.82.704-3.152.704H46z"/><path style="fill:#f4f4f7" d="M8 21v22h14v-4H12V21H8zm24.543 0c-2.41-.045-5.09.753-6.43 2.863-1.002 1.664-1.1 3.818-.39 5.606.797 1.908 2.657 3.052 4.468 3.906 1.345.713 2.873 1.224 3.922 2.363.967 1.127.25 3.088-1.222 3.356-2.256.498-4.533-.233-6.598-1.09-.54-.144-1.486-.934-1.258.047v3.656c2.784 1.313 6.033 1.61 9.04.965 2.289-.48 4.375-2.225 4.788-4.559.375-1.916.006-4.097-1.5-5.472-1.983-1.906-4.786-2.567-6.972-4.176-1.124-.936-.788-2.973.62-3.457 1.653-.547 3.44-.054 5.024.496.594.089 1.496.963 1.617 0l1.254-3.008c-2.011-.859-4.146-1.535-6.363-1.496zM42 21v21.95l4 .05v-7.883l2.133-.047c1.964-.139 3.52-.343 4.656-1.02 1.155-.676 1.98-1.564 2.473-2.671A8.41 8.41 0 0 0 56 27.855c0-2.13-.605-3.802-1.816-5.011C52.99 21.614 51.089 21 48.477 21H42zm4 3.992h2.254c2.499 0 3.746.98 3.746 2.938 0 1.073-.396 1.854-1.188 2.343-.77.471-1.82.704-3.152.704H46v-5.985z"/><path style="opacity:.2;fill:#f4f4f7" d="M6.953 11A3.936 3.936 0 0 0 3 14.938v1A3.936 3.936 0 0 1 6.953 12h50.094A3.936 3.936 0 0 1 61 15.938v-1A3.936 3.936 0 0 0 57.047 11H6.953z"/></svg>
